X:18
T:The Trowie Burn
S:Bernie Waugh
R:Slow Air
M:3/4
L:1/4
K:Em
"Em"G2"D"A|"G"B/<e/-ed|B>AG|"Am"A2c|\
"Bm"B2A|"C"A>GA|"B7"B2A|"Em"G/<E/-E2|
"Em"G2"D"A|"G"B/<e/-ed|B>AG|"Bm"B>cd|\
"Em"d/<e/-eE|"C"B2A|G/<E/-E2|"Em"D/<E/-E2|
"Em"G2"D"A|"G"B/<e/-ed|B>AG|"F"A2c|\
"B"B2A|"Am"A>GA|"B7"B2A|"C"G/<E/-E2|
"Em"G2"D"A|"G"B/<e/-ed|B>AG|"Bm"B>cd|\
"Em"d/<e/-eE|"C"B2A|G/<E/-E2|"Em"D/<E/-E2||
"Em"g2"D"a|"G"b>af|g2d|B/<G/-G2|\
"Am"a2c|"Bm"B2A|"C"A>GA|"B7"B2A|"Em"G/<E/-E2|
"Em"g2"D"a|"G"b>af|g2d|B/<G/-G2|\
"Bm"B>cd|"Em"d/<e/-eE|"C"B2A|G/<E/-E2|"Em"D/<E/-E2|
"Em"g2"D"a|"G"b>af|g2d|B/<G/-G2|\
"F"a2c|"B"B2A|"Am"A>GA|"B7"B2A|"C"G/<E/-E2|
"C"G2A|"G"B/<e/-ed|B>AG|"Bm"B>cd|\
"C"d/<e/-eE|"B7"B2A|"Am"G/<E/-E2|"Em"D/<E/-E2|]

